X:62
T:The Miller's Maggot
M:6/8
L:1/8
R:Jig
K:G
"G"G2A B2A|B2A "Em"BGE|"G"G2A "G/F#m"B2A|"Em"B2e "C"e3|
"G"G2A B2A|B2A "Em"BGE|"C"gfe "G"dBA|"Em"B2e e3:|
|:"C"e2f g2e|"G"d2B BAB|"C"e2f g3|"D"aga "Em"b3|
"C"e2f g2e|"G"d2B BAG|"Am"A2B cBA|"Em"Bee edB:|"Em"Bee "A7"e2z|]
W:                                                                                                                                            last time
